X:1
T:Title
%%score { ( 1 3 ) | ( 2 4 ) }
L:1/8
Q:1/4=94
M:4/4
K:C
V:1 treble nm="Grand Piano"
V:3 treble 
V:2 bass 
V:4 bass 
V:1
 [EG]>[_E^F] [=EG]>[=FA] [EG]>[DF] [CE]>[EG] | [Ec]>[Ec] [GB]>[FA] [EG]3 [EG] | %2
w: M.~L.~McPhail * * * * * * *||
 [FA]>[Ac] [GB]>[FA] [EG]>E C>E | E>D D>C [B,D]4 | [EG]>[_E^F] [=EG]>[=FA] [EG]>[DF] [CE]>[EG] | %5
w: |||
 [Ec]>[Ec] [GB]>[FA] [EG]2 [CG]2 | [C^FA]>[CFA] [B,FB]>[Fc] [Fd]>[FA] [=FB]>[FG] | [Ec]6 z2 | %8
w: |||
 z z/ C/ G->[EG] c->[Ec] e->[Ge] | d>[Ac] [GB]>[FA] [EG]4 |[M:7/8] G>FF>E F3 |[M:1/8] A | %12
w: ||||
[M:4/4] [FA]>[EG] [EG]>[DF] E4 | E>E E>[DF] [EG]>[FA] [EG]>[EG] | [Ge]>[Fd] [Ec]>[FA] [EG]2 [CG]2 | %15
w: |||
 [C^FA]>[CFA] [B,FB]>[Ec] [Fd]>[DFA] [D=FB]>[B,FG] |[M:7/8] c-c-c- c- c3 |] %17
w: ||
V:2
 [C,C]>[C,C] [C,C]>[C,C] [C,C]>[C,G,] [C,G,]>[C,C] | [C,G,]>[C,G,] [C,C]>[C,C] [C,C]3 [C,C] | %2
 [F,C]>[F,C] [F,C]>[F,C] [C,C]>[C,G,C] [C,E,]>[C,G,C] | [D,^F,C]>[D,F,C] [D,F,C]>[D,F,] [G,,G,]4 | %4
 [C,C]>[C,C] [C,C]>[C,C] [C,C]>[C,G,] [C,G,]>[C,C] | [C,G,]>[C,G,] [C,C]>[C,C] [C,C]2 E,2 | %6
 D,>D, D,>[D,A,] [D,A,]>[D,D] [G,D]>[G,B,] | [C,C]6 z2 | %8
 [C,G,C]>[C,G,] [C,C]>[C,C] [C,G,]>[C,G,] [C,C]>[C,C] | [F,A,F]>[F,C] [F,C]>[F,C] [C,C]4 | %10
[M:7/8][K:treble] [G,B,E]>[G,B,D][G,B,D]>[G,_B,^C] [G,=B,D]3 |[M:1/8] [G,B,F] | %12
[M:4/4][K:bass] [C,C]>[C,C] [C,C]>[C,G,] [C,G,C]4 | %13
 [C,G,C]>[C,G,C] [C,G,C]>[C,G,] [C,C]>[C,C] [C,C]>[C,C] | [C,C]>[C,G,] [C,G,]>[C,C] [C,C]2 E,2 | %15
 D,>D, D,>[D,A,] [D,A,]>D, G,>G,, |[M:7/8] [C,G,]2 z/ G,[C,^F,]/ [C,G,]3 |] %17
V:3
 x8 | x8 | x8 | x8 | x8 | x8 | x8 | x8 | E2 E2 E2 G2 | x8 |[M:7/8] x7 |[M:1/8] x |[M:4/4] x8 | x8 | %14
 x8 | x8 |[M:7/8] E2 [A,F]/E_E/ =E3 |] %17
V:4
 x8 | x8 | x8 | x8 | x8 | x8 | x8 | x8 | x8 | x8 |[M:7/8][K:treble] x7 |[M:1/8] x | %12
[M:4/4][K:bass] x8 | x8 | x8 | x8 |[M:7/8] z2 C,2 z z2 |] %17

